P3
32 18
255
245 210 55  245 210 55  245 210 55  245 210 55  245 210 55  245 210 55  245 210 55  245 210 55  245 210 55  245 210 55  245 210 55  245 210 55  245 210 55  245 210 55  245 210 55  245 210 55  245 210 55  245 210 55  245 210 55  245 210 55  245 210 55  245 210 55  245 210 55  245 210 55  245 210 55  245 210 55  245 210 55  245 210 55  245 210 55  245 210 55  245 210 55  245 210 55
245 210 55  30 71 170  35 71 170  40 71 170  245 210 55  190 50 55  190 50 59  190 50 63  245 210 55  70 71 170  75 71 170  80 71 170  245 210 55  190 50 87  190 50 91  190 50 95  245 210 55  110 71 170  115 71 170  120 71 170  245 210 55  190 50 119  190 50 123  190 50 127  245 210 55  150 71 170  155 71 170  160 71 170  245 210 55  190 50 151  190 50 155  190 50 159
245 210 55  30 77 170  35 77 170  40 77 170  245 210 55  190 55 55  190 55 59  190 55 63  245 210 55  70 77 170  75 77 170  80 77 170  245 210 55  190 55 87  190 55 91  190 55 95  245 210 55  110 77 170  115 77 170  120 77 170  245 210 55  190 55 119  190 55 123  190 55 127  245 210 55  150 77 170  155 77 170  160 77 170  245 210 55  190 55 151  190 55 155  190 55 159
245 210 55  245 210 55  245 210 55  245 210 55  245 210 55  245 210 55  245 210 55  245 210 55  245 210 55  245 210 55  245 210 55  245 210 55  245 210 55  245 210 55  245 210 55  245 210 55  245 210 55  245 210 55  245 210 55  245 210 55  245 210 55  245 210 55  245 210 55  245 210 55  245 210 55  245 210 55  245 210 55  245 210 55  245 210 55  245 210 55  245 210 55  245 210 55
245 210 55  190 65 39  190 65 43  190 65 47  245 210 55  50 89 170  55 89 170  60 89 170  245 210 55  190 65 71  190 65 75  190 65 79  245 210 55  90 89 170  95 89 170  100 89 170  245 210 55  190 65 103  190 65 107  190 65 111  245 210 55  130 89 170  135 89 170  140 89 170  245 210 55  190 65 135  190 65 139  190 65 143  245 210 55  170 89 170  175 89 170  180 89 170
245 210 55  190 70 39  190 70 43  190 70 47  245 210 55  50 95 170  55 95 170  60 95 170  245 210 55  190 70 71  190 70 75  190 70 79  245 210 55  90 95 170  95 95 170  100 95 170  245 210 55  190 70 103  190 70 107  190 70 111  245 210 55  130 95 170  135 95 170  140 95 170  245 210 55  190 70 135  190 70 139  190 70 143  245 210 55  170 95 170  175 95 170  180 95 170
245 210 55  245 210 55  245 210 55  245 210 55  245 210 55  245 210 55  245 210 55  245 210 55  245 210 55  245 210 55  245 210 55  245 210 55  245 210 55  245 210 55  245 210 55  245 210 55  245 210 55  245 210 55  245 210 55  245 210 55  245 210 55  245 210 55  245 210 55  245 210 55  245 210 55  245 210 55  245 210 55  245 210 55  245 210 55  245 210 55  245 210 55  245 210 55
245 210 55  30 107 170  35 107 170  40 107 170  245 210 55  190 80 55  190 80 59  190 80 63  245 210 55  70 107 170  75 107 170  80 107 170  245 210 55  190 80 87  190 80 91  190 80 95  245 210 55  110 107 170  115 107 170  120 107 170  245 210 55  190 80 119  190 80 123  190 80 127  245 210 55  150 107 170  155 107 170  160 107 170  245 210 55  190 80 151  190 80 155  190 80 159
245 210 55  30 113 170  35 113 170  40 113 170  245 210 55  190 85 55  190 85 59  190 85 63  245 210 55  70 113 170  75 113 170  80 113 170  245 210 55  190 85 87  190 85 91  190 85 95  245 210 55  110 113 170  115 113 170  120 113 170  245 210 55  190 85 119  190 85 123  190 85 127  245 210 55  150 113 170  155 113 170  160 113 170  245 210 55  190 85 151  190 85 155  190 85 159
245 210 55  245 210 55  245 210 55  245 210 55  245 210 55  245 210 55  245 210 55  245 210 55  245 210 55  245 210 55  245 210 55  245 210 55  245 210 55  245 210 55  245 210 55  245 210 55  245 210 55  245 210 55  245 210 55  245 210 55  245 210 55  245 210 55  245 210 55  245 210 55  245 210 55  245 210 55  245 210 55  245 210 55  245 210 55  245 210 55  245 210 55  245 210 55
245 210 55  190 95 39  190 95 43  190 95 47  245 210 55  50 125 170  55 125 170  60 125 170  245 210 55  190 95 71  190 95 75  190 95 79  245 210 55  90 125 170  95 125 170  100 125 170  245 210 55  190 95 103  190 95 107  190 95 111  245 210 55  130 125 170  135 125 170  140 125 170  245 210 55  190 95 135  190 95 139  190 95 143  245 210 55  170 125 170  175 125 170  180 125 170
245 210 55  190 100 39  190 100 43  190 100 47  245 210 55  50 131 170  55 131 170  60 131 170  245 210 55  190 100 71  190 100 75  190 100 79  245 210 55  90 131 170  95 131 170  100 131 170  245 210 55  190 100 103  190 100 107  190 100 111  245 210 55  130 131 170  135 131 170  140 131 170  245 210 55  190 100 135  190 100 139  190 100 143  245 210 55  170 131 170  175 131 170  180 131 170
245 210 55  245 210 55  245 210 55  245 210 55  245 210 55  245 210 55  245 210 55  245 210 55  245 210 55  245 210 55  245 210 55  245 210 55  245 210 55  245 210 55  245 210 55  245 210 55  245 210 55  245 210 55  245 210 55  245 210 55  245 210 55  245 210 55  245 210 55  245 210 55  245 210 55  245 210 55  245 210 55  245 210 55  245 210 55  245 210 55  245 210 55  245 210 55
245 210 55  30 143 170  35 143 170  40 143 170  245 210 55  190 110 55  190 110 59  190 110 63  245 210 55  70 143 170  75 143 170  80 143 170  245 210 55  190 110 87  190 110 91  190 110 95  245 210 55  110 143 170  115 143 170  120 143 170  245 210 55  190 110 119  190 110 123  190 110 127  245 210 55  150 143 170  155 143 170  160 143 170  245 210 55  190 110 151  190 110 155  190 110 159
245 210 55  30 149 170  35 149 170  40 149 170  245 210 55  190 115 55  190 115 59  190 115 63  245 210 55  70 149 170  75 149 170  80 149 170  245 210 55  190 115 87  190 115 91  190 115 95  245 210 55  110 149 170  115 149 170  120 149 170  245 210 55  190 115 119  190 115 123  190 115 127  245 210 55  150 149 170  155 149 170  160 149 170  245 210 55  190 115 151  190 115 155  190 115 159
245 210 55  245 210 55  245 210 55  245 210 55  245 210 55  245 210 55  245 210 55  245 210 55  245 210 55  245 210 55  245 210 55  245 210 55  245 210 55  245 210 55  245 210 55  245 210 55  245 210 55  245 210 55  245 210 55  245 210 55  245 210 55  245 210 55  245 210 55  245 210 55  245 210 55  245 210 55  245 210 55  245 210 55  245 210 55  245 210 55  245 210 55  245 210 55
245 210 55  190 125 39  190 125 43  190 125 47  245 210 55  50 161 170  55 161 170  60 161 170  245 210 55  190 125 71  190 125 75  190 125 79  245 210 55  90 161 170  95 161 170  100 161 170  245 210 55  190 125 103  190 125 107  190 125 111  245 210 55  130 161 170  135 161 170  140 161 170  245 210 55  190 125 135  190 125 139  190 125 143  245 210 55  170 161 170  175 161 170  180 161 170
245 210 55  190 130 39  190 130 43  190 130 47  245 210 55  50 167 170  55 167 170  60 167 170  245 210 55  190 130 71  190 130 75  190 130 79  245 210 55  90 167 170  95 167 170  100 167 170  245 210 55  190 130 103  190 130 107  190 130 111  245 210 55  130 167 170  135 167 170  140 167 170  245 210 55  190 130 135  190 130 139  190 130 143  245 210 55  170 167 170  175 167 170  180 167 170
